src/assets/desktop/LogoDesktop.svg

<svg width="124" height="34" viewBox="0 0 124 34" fill="none" xmlns="http://www.w3.org/2000/svg">
<path d="M44.612 32.172C42.8354 31.1585 41.4468 29.7546 40.4462 27.9673C39.4524 26.1799 38.9487 24.1529 38.9487 21.893C38.9487 19.6331 39.4592 17.6061 40.4802 15.8187C41.5012 14.0313 42.9171 12.6343 44.7209 11.6276C46.5247 10.6278 48.5463 10.1211 50.7926 10.1211C53.0388 10.1211 55.0128 10.6278 56.7894 11.6413C58.566 12.6549 59.9545 14.0587 60.9552 15.8461C61.9489 17.6335 62.4527 19.6605 62.4527 21.9204C62.4527 24.1803 61.9421 26.2073 60.9211 27.9947C59.9001 29.782 58.4843 31.179 56.6805 32.1857C54.8767 33.1856 52.855 33.6923 50.6088 33.6923C48.3625 33.6923 46.3885 33.1855 44.612 32.172ZM53.9577 27.5701C54.8767 27.0359 55.5846 26.2826 56.0747 25.3034C56.5647 24.3241 56.8098 23.201 56.8098 21.9341C56.8098 20.0029 56.2516 18.4415 55.1421 17.25C54.0326 16.0584 52.5419 15.4626 50.6768 15.4626C48.8118 15.4626 48.3625 15.7297 47.4436 16.2638C46.5247 16.798 45.8168 17.5513 45.3267 18.5306C44.8366 19.5098 44.5915 20.6329 44.5915 21.8998C44.5915 23.1667 44.8366 24.2898 45.3267 25.2691C45.8168 26.2484 46.5315 27.0085 47.464 27.5564C48.3966 28.1042 49.4856 28.3713 50.7177 28.3713C51.9497 28.3713 53.032 28.1042 53.9509 27.5701H53.9577Z" fill="#1261FC"/>
<path d="M66.3121 10.5867H71.8393V15.4626H72.2205C72.4247 14.8257 72.6765 14.2573 72.976 13.7506C73.2755 13.2438 73.6227 12.785 73.997 12.3809C74.6777 11.6208 75.4945 11.0524 76.4407 10.6895C77.3868 10.3197 78.367 10.1348 79.3744 10.1348C81.7228 10.1348 83.5947 10.8607 84.9969 12.3056C86.3991 13.7506 87.1002 15.7708 87.1002 18.3594V33.2472H81.4641V20.1125C81.4641 18.6127 81.151 17.4691 80.518 16.6679C79.8849 15.8666 78.789 15.4694 77.2235 15.4694C75.6579 15.4694 75.5422 15.627 74.7662 15.9488C73.9834 16.2638 73.3232 16.8596 72.7786 17.7225C72.2341 18.5853 71.9618 19.7769 71.9618 21.3041V33.2609H66.3257V10.5867H66.3121Z" fill="#1261FC"/>
<path d="M92.4504 6.38198C91.7561 5.68347 91.4089 4.84115 91.4089 3.84817C91.4089 2.8552 91.7561 2.05397 92.4504 1.35546C93.1447 0.656948 93.9819 0.307693 94.9689 0.307693C95.9559 0.307693 96.7523 0.656948 97.4466 1.35546C98.1409 2.05397 98.488 2.88259 98.488 3.84817C98.488 4.81376 98.1409 5.68347 97.4466 6.38198C96.7523 7.08049 95.9286 7.42975 94.9689 7.42975C94.0091 7.42975 93.1447 7.08049 92.4504 6.38198ZM92.1985 10.5867H97.8346V33.2403H92.1985V10.5867Z" fill="#1261FC"/>
<path d="M103.212 10.5867H108.739V15.4626H109.12C109.324 14.8257 109.576 14.2573 109.876 13.7506C110.175 13.2438 110.522 12.785 110.897 12.3809C111.578 11.6208 112.394 11.0524 113.341 10.6895C114.287 10.3197 115.267 10.1348 116.274 10.1348C118.623 10.1348 120.494 10.8607 121.897 12.3056C123.299 13.7506 124 15.7708 124 18.3594V33.2472H118.364V20.1125C118.364 18.6127 118.051 17.4691 117.418 16.6679C116.785 15.8666 115.689 15.4694 114.123 15.4694C112.558 15.4694 112.442 15.627 111.666 15.9488C110.883 16.2638 110.223 16.8596 109.678 17.7225C109.134 18.5853 108.862 19.7769 108.862 21.3041V33.2609H103.226V10.5867H103.212Z" fill="#1261FC"/>
<path d="M33.1765 10.0252C33.1765 10.1348 33.1765 10.2443 33.1765 10.3539C33.1152 12.7302 32.0874 14.9832 30.4197 16.6679L28.9086 18.195L26.9891 20.1262L13.6817 6.73808V33.5074H0V0.307693H23.3066C28.6772 0.307693 33.1424 4.62201 33.1765 10.0252Z" fill="#1261FC"/>
<path d="M40.2896 33.5074H13.6817L26.9823 20.1193L40.2896 33.5074Z" fill="#1261FC"/>
</svg>

<svg xmlns="http://www.w3.org/2000/svg" width="124" height="34" fill="none"><path fill="#1261FC" d="M44.612 32.172a10.86 10.86 0 0 1-4.166-4.205c-.994-1.787-1.497-3.814-1.497-6.074q0-3.392 1.531-6.074a10.93 10.93 0 0 1 4.24-4.191c1.805-1 3.826-1.507 6.073-1.507 2.246 0 4.22.507 5.996 1.52a10.86 10.86 0 0 1 4.166 4.205c.994 1.788 1.498 3.814 1.498 6.074q0 3.391-1.532 6.075a10.93 10.93 0 0 1-4.24 4.19c-1.804 1-3.826 1.507-6.072 1.507s-4.22-.507-5.997-1.52m9.346-4.602a5.3 5.3 0 0 0 2.117-2.267q.735-1.468.735-3.369-.002-2.896-1.668-4.684-1.666-1.787-4.465-1.787c-1.865 0-2.315.267-3.233.8a5.3 5.3 0 0 0-2.117 2.268q-.735 1.468-.735 3.369 0 1.9.735 3.37.737 1.466 2.137 2.286c.933.548 2.022.815 3.254.815s2.314-.267 3.233-.8zm12.354-16.983h5.527v4.876h.382a8.4 8.4 0 0 1 .755-1.712 8 8 0 0 1 1.021-1.37 6.25 6.25 0 0 1 2.444-1.691 8 8 0 0 1 2.933-.555c2.349 0 4.22.726 5.623 2.17q2.103 2.17 2.103 6.054v14.888h-5.636V20.113c0-1.5-.313-2.644-.946-3.445q-.948-1.2-3.294-1.199c-1.566 0-1.682.158-2.458.48-.783.315-1.443.91-1.987 1.774q-.817 1.292-.817 3.581v11.957h-5.636V10.587zM92.45 6.382c-.694-.699-1.041-1.54-1.041-2.534s.347-1.794 1.041-2.493A3.42 3.42 0 0 1 94.97.308c.987 0 1.783.349 2.478 1.047q1.041 1.047 1.041 2.493c0 .966-.347 1.835-1.041 2.534-.695.698-1.518 1.048-2.478 1.048a3.46 3.46 0 0 1-2.519-1.048m-.252 4.205h5.637V33.24H92.2zm11.013 0h5.527v4.876h.381a8.3 8.3 0 0 1 .756-1.712 8 8 0 0 1 1.021-1.37 6.25 6.25 0 0 1 2.444-1.691 8 8 0 0 1 2.933-.555c2.349 0 4.22.726 5.623 2.17Q124 14.476 124 18.36v14.888h-5.636V20.113c0-1.5-.313-2.644-.946-3.445q-.948-1.2-3.295-1.199c-1.565 0-1.681.158-2.457.48-.783.315-1.443.91-1.988 1.774q-.816 1.292-.816 3.581v11.957h-5.636V10.587zm-70.035-.562v.329c-.062 2.376-1.09 4.63-2.757 6.314l-1.511 1.527-1.92 1.931L13.682 6.738v26.77H0V.307h23.307c5.37 0 9.835 4.314 9.87 9.717"/><path fill="#1261FC" d="M40.29 33.507H13.682l13.3-13.388z"/></svg>
